public/library/1inch-icon-dark.svg

<svg xmlns="http://www.w3.org/2000/svg" width="512" height="512" fill="none" viewBox="0 0 512 512"><path fill="#fff" d="M512 0H0v512h512z"/><path fill="#000" d="M169.713 383.699h172.925v-36.715l-63.849.001V128.301h-37.778c-1.456 30.587-10.269 38.31-52.143 38.31h-19.155v34.585h63.849v145.789h-63.849zM360.729 201.196v-72.895h-36.713v72.895zM425.111 201.196v-72.895h-36.714v72.895z"/></svg>

<svg width="512" height="512" viewBox="0 0 512 512" fill="none" xmlns="http://www.w3.org/2000/svg">
<path d="M512 0H0V512H512V0Z" fill="white"/>
<path d="M169.713 383.699H342.638V346.984L278.789 346.985V128.301H241.011C239.555 158.888 230.742 166.611 188.868 166.611H169.713V201.196H233.562V346.985H169.713V383.699Z" fill="black"/>
<path d="M360.729 201.196V128.301H324.016V201.196H360.729Z" fill="black"/>
<path d="M425.111 201.196V128.301H388.397V201.196H425.111Z" fill="black"/>
</svg>
